X: 24
P: Rondeau
M: C|
L: 1/8
K: Gm
V: 1
cFce dBdf | b4 bagf | gfed edcB | A2F2 FEDC |\
bagf |\
=e2a2 gf=ed | ^c2A2 BAGF | =E2A2 GF=ED | ^C2A,2 A=Bcd |\
c=BAG =B^cd=e | d^c=BA agf=e | gf=ed f=ed^c | "_Da Capo"d4 |]
V: 2 clef=bass middle=d
g4 |\
^f4 g4 | B2d2 =B2G2 | c4 ^c4 |
d4 B2G2 | ^F4 G4 | B2d2 =B2G2 | c4 d4 |
f4 A4 | B2b2 e2g2 | f4 F4 | f4 F4 | "_Da Capo"B4 |]
g4 |\
a4 b4 | a4 g4 | a4 b4 | a4 ^f4 |
g4 ^g4 | a4 ^c'4 | d'4 a4 | "_Da Capo"d4 |]


